X:1
T:Rockingham (Mason), LM
T:Rockingham (Mason), LM
T:Lowell Mason, 1832
T:Public Domain Courtesy of the Cyber Hymnal™
C:Lowell Mason, 1832
Z:Public Domain
Z:Courtesy of the Cyber Hymnal™
%%score 1 ( 2 3 )
L:1/8
Q:1/4=125
M:3/2
K:G
V:1 treble 
V:2 bass 
V:3 bass 
V:1
 [DG]4 | [CF]2 [B,G]2 [DA]4 [DB]4 | [Dd]2 [DB]2 [FA]4 [DB]4 | [CA]2 [B,G]2 [CE]4 [B,D]4 | %4
 [B,G]2 [DA]2 [DG]4 [DG]4 | [Dd]2 [Gd]2 [Ge]4 [Fd]4 | [GB]2 [EA]2 [FA]4 [FA]4 | %7
 [GB]2 [DG]2 [CE]4 [B,D]4 | [B,G]2 [DA]2 [DG]4 |] %9
V:2
 [G,B,]4 | [D,A,]2 [E,G,]2 [D,F,]4 G,4 | [F,A,]2 G,2 [D,D]4 [G,D]4 | %3
 [D,F,]2 [E,G,]2 [C,G,]4 [G,,G,]4 | [E,G,]2 [D,C]2 [G,B,]4 [G,B,]4 | %5
 [F,A,]2 [G,B,]2 [C,C]4 [D,A,]4 | [G,B,]2 [A,^C]2 [D,D]4 [D,D]4 | %7
 [G,D]2 [B,,G,]2 [C,G,]4 [G,,G,]4 | [E,G,]2 [D,C]2 [G,,B,]4 |] %9
V:3
 x4 | x8 G,4 | x2 G,2 x8 | x12 | x12 | x12 | x12 | x12 | x8 |] %9

